X: 34367
T: Reveillez Vous Picards
R: polka
M: 2/4
K: Eminor
E|"Em" EE GA|"G" B3 ^c|"Bm" d>e d^c|B3 B|"G" BB BB|d/c/B/A/ "Em"G"Am"c|"G"BB "D"AA|
G3 F|"Em"GABc|B3 A|AG FE|D3 E "C"|EE EE|"Em" G2 GG|"Am" A>A BB|"Em"G>F ED|
"D"F3 G|"Am"A>B GF|"Em"E3||

